X:1
T:Title
%%score ( 1 2 3 ) { ( 4 6 ) | 5 }
L:1/8
Q:1/4=100
M:4/4
K:D
V:1 treble nm="Grand Piano, Piano"
V:2 treble 
V:3 treble 
V:4 bass nm="Grand Piano, Piano"
V:6 bass 
V:5 bass 
V:1
 [A,D]2 [A,D]2 [DF]2 [DF]2 | A4 z4 | [B,B]2 [CB]2 [DB]2 [EB]2 | [FA]4 [DF]4 | A4 z4 | d4 z4 | %6
w: 1.~�San to!~ �San to!~|�San|or~ om ni po|ten te,~|siem|mi|
 E2 [CA]2 [DB]3 [CA] | [CA]8 | [A,D]2 [A,D]2 [DF]2 [DF]2 | A4 z4 | B4 z4 | [FA]4 [DA]4 | %12
w: o res~ te~ da|r�.~|�San to!~ �San to!~|�San|do|ren te,~|
 [Dd]2 [Dd]2 [DA]2 [DA]2 | [DB]4 [DF]2 [=CF]2 | [B,G]2 [B,E]2 [CE]3 D | D8 |] %16
w: Dios~ en~ tres~ per|so nas,~ ben|di ta~ Tri ni|dad.~|
V:2
 x8 | C2 E2 [DA]2 [CA]2 | x8 | x8 | E2 z A [FA]2 [EA]2 | D2 E2 [Ec]2 [FA]2 | x8 | x8 | x8 | %9
w: |* * * Se�|||* pre\_el~ * bio~|* * * lo||||
 C2 E2 [DA]2 [CA]2 | B,2 z B [DB]2 [EB]2 | x8 | x8 | x8 | x8 | x8 |] %16
w: * * * te\_a|* ro~ * ve||||||
V:3
 x8 | x8 | x8 | x8 | z2 E2 z4 | x8 | x8 | x8 | x8 | x8 | z2 C2 z4 | x8 | x8 | x8 | x8 | x8 |] %16
V:4
 F,2 F,2 D,2 D,2 | E,2 G,2 F,2 A,2 | G,2 A,2 B,2 C2 | D2 A,2 A,4 | A,2 A,2 A,2 A,2 | %5
 F,2 ^G,2 A,2 A,2 | C2 A,2 ^G,3 A, | A,4 G,4 | F,2 F,2 D,2 D,2 | E,2 G,2 F,2 A,2 | z2 A,2 z4 | %11
 D2 A,2 F,4 | F,2 G,2 A,2 =C2 | B,4 A,2 A,2 | G,2 G,2 G,3 F, | F,8 |] %16
V:5
 D,2 D,2 B,,2 B,,2 | A,,4 D,2 D,2 | G,,2 G,,2 G,2 G,2 | D,4 D,4 | C,2 C,2 D,2 C,2 | B,,4 C,2 D,2 | %6
 E,2 E,2 E,3 A,, | A,,8 | D,2 D,2 B,,2 B,,2 | A,,4 D,2 D,2 | G,,4 G,2 G,2 | D,4 D,4 | %12
 B,,2 B,,2 F,,2 F,,2 | G,,4 D,2 D,2 | G,,2 G,,2 A,,3 D, | D,8 |] %16
V:6
 x8 | x8 | x8 | x8 | x8 | x8 | x8 | x8 | x8 | x8 | G,2 z G,, B,2 C2 | x8 | x8 | x8 | x8 | x8 |] %16

